X:1
T:Title
%%score ( 1 2 ) { 3 | 4 }
L:1/8
Q:1/4=110
M:4/4
K:Bb
V:1 treble nm="Grand Piano, Soprano"
V:2 treble 
V:3 bass nm="Choir Pad, Ho! Army of Endeavors"
V:4 bass 
V:1
 [DF]2 [DB]2- [DB][FB] [FA]2 | [FB]2 [GB]4 [EG]2 | [EG]2 F2 [FB]2 [EA]2 | [DB]2 [Fc]6 | %4
w: By~William~Henry~Pontius * * * *||||
 F2 [Fc]2- [Fc]F [Fc]2 | [Fd]2 [Ge]4 [Fd]2 | [Fd]2 [Fc]2- [Fc]F [FA]2 | [=EG]2 F6 | %8
w: ||||
 F2 [Fc]2- [Fc]F [Fc]2 | [FA]2 [DB]4 [DF]2 | [DF]2 [Fe]2- [Fe][Fc] [Ff]2 | [Fe]2 [Fd]6 | %12
w: ||||
 [Fd]2 [Fd]2- [Fd][^Fd] [Gd]2 | [_Ad]2 e2 d2 [EG]2 | [Ge]2 [Fd]2- [Fd][FB] [Fc]2 | [EA]2 [DB]6 | %16
w: ||||
 F2 [Fc]6 | F2 [Fd]6 | F2 [Fe]2- [Fe][Fc]fe | [Bd][Gc] [FB]4 [FA]2 | dc B2- [GB-]2 [GB]2 | %21
w: |||||
 cB [FA]2 [Fc]2 [Ae]2 | [Ae]2 [Bd]2- [Bd][Gc] [FB]2 | [EA]2 [DB]6- | [DB]2 z2 z4 |] %25
w: ||||
V:2
 x8 | x8 | x8 | x8 | x8 | x8 | x8 | x8 | x8 | x8 | x8 | x8 | x8 | z2 G4 z2 | x8 | x8 | x8 | x8 | %18
 z4 z2 F2 | x8 | ^F2 G2 z4 | =E2 z2 z4 | x8 | x8 | x8 |] %25
V:3
 B,2 B,2- B,B, F,2 | B,2 B,4 B,2 | B,2 B,2 F,2 F,2 | B,2 A,6 | A,2 A,2- A,A, A,2 | B,2 B,4 B,2 | %6
 B,2 A,2- A,A, C2 | B,2 A,6 | A,2 A,2- A,A, A,2 | C2 B,4 B,2 | B,2 A,2- A,A, A,2 | C2 B,6 | %12
 B,2 B,2- B,/ z/ C B,2 | B,2 B,4 B,2 | B,2[K:treble] C2- CD E2 | C2[K:bass] B,6 | F,2 A,4 z2 | %17
 A,2 B,2 F,2 D,2 | D2 C2- CA,B,A, | B,[K:treble]C D4 C2 | A,2 B,2 D2 D2 | C2 C2 A,2 C2 | %22
 C2[K:bass] B,2- B,B, D2 | C2 B,6- | B,2 z2 z4 |] %25
V:4
 B,,2 B,,2- B,,D, C,2 | D,2 E,4 E,2 | E,2 D,2 D,2 C,2 | B,,2 F,6 | F,2 F,2- F,F, F,2 | %5
 z2 E,4 B,,2 | B,,2 C,2- C,C, C,2 | C,2 F,6 | F,2 F,2- F,F, F,2 | F,2 B,,4 B,,2 | %10
 z2 F,2- F,F, F,2 | A,2 z2 z4 | z4 z A, G,2 | F,2 E,4 E,2 | E,2 F,2- F,F, F,2 | F,2 B,,6 | %16
 z2 F,2 C2 A,2 | F,2 z2 z4 | B,,2 F,2- F,F,B,,C, | D,E, F,4 F,2 | D,2 G,6 | C,2 F,2 F,2 F,2 | %22
 F,2 B,,2- B,,E, F,2 | F,2 B,,6- | B,,2 z2 z4 |] %25

